X:55
T:Lei courdello
O:France
A:Provence
R:Danse trad.
S:Carnet du tambourinaire Ginas (1924)
C:Trad.
Z:Transcrit et/ou corrig? par Michel BELLON - 2005-03-06
Z:Pour toute observation mailto:galouvielle@free.fr
M:2/4
L:1/8
K:Bb
d>c Bf | fe d2 |  d>c de | c2Bz | d>c Bf | fed2 | d>cde | c2Bz | \
w:Sian de joui-ne cour-de-lie, Fa-s?n de cour-del-lo. E dins nos-te b?u mes-ti?, Ser-ven foue-?o bel-lo 
bb aa | ggf2 | fg gf | fe dd/e/ | ff f/e/d/e/ | ff fd | d>e ff | g2f2 | B>c de | c2Bz |]
w:Dins nos-to bou-ti-go v?n De tou-to sor-to de g?nt, Mai lei pu pou-li-do soun lei mi?s ser-vi-do, Mai lei pu pou-li-do soun lei mi?s ser-vi-do.
<end>
<start>
